packages/core/src/svgs/tokens/branded/DACXI.svg

<svg width="24" height="24" viewBox="0 0 24 24" fill="none" xmlns="http://www.w3.org/2000/svg">
<path d="M13.6668 3.92133C13.6668 3.5102 13.889 3.1324 14.2502 2.92127L15.5168 2.1768C15.7139 2.06103 15.9383 2 16.167 2C16.3955 2 16.6199 2.06103 16.817 2.1768L18.0836 2.92127C18.2596 3.02279 18.4058 3.16845 18.5082 3.34384C18.6105 3.51923 18.6652 3.71829 18.667 3.92133V17.2109C18.667 18.0555 18.2115 18.8277 17.4725 19.2499L17.0503 19.4888L12.2779 16.7386L13.4668 16.0386C13.5282 16.0019 13.5789 15.9498 13.614 15.8874C13.649 15.8251 13.6673 15.7547 13.6668 15.6831V3.91578V3.92133ZM12.5556 7.62153C11.9616 7.48086 11.3363 7.57018 10.8055 7.87154L6.52752 10.305C6.1657 10.5087 5.86447 10.8048 5.65458 11.1629C5.44472 11.5213 5.33375 11.9288 5.33301 12.3439V12.7274L9.77768 15.2942V13.8718C9.77768 13.7218 9.85546 13.594 9.97774 13.5162L11.5222 12.6107C11.6445 12.5384 11.8 12.5384 11.9223 12.6107L12.5556 12.9829V7.62153ZM5.33301 14.0108V17.2109C5.33301 18.0555 5.78859 18.8277 6.52752 19.2499L10.8055 21.6833C11.5444 22.1056 12.4556 22.1056 13.1945 21.6833L15.928 20.1277L5.33301 14.0108Z" fill="url(#paint0_linear_364_13620)"/>
<defs>
<linearGradient id="paint0_linear_364_13620" x1="12.0001" y1="2" x2="12.0001" y2="22" gradientUnits="userSpaceOnUse">
<stop stop-color="#0584BE"/>
<stop offset="0.78" stop-color="#244E78"/>
</linearGradient>
</defs>
</svg>

<svg xmlns="http://www.w3.org/2000/svg" width="24" height="24" fill="none" viewBox="0 0 24 24">
    <path fill="url(#DACXI__a)" d="M13.667 3.921c0-.41.222-.789.583-1l1.267-.744a1.28 1.28 0 0 1 1.3 0l1.267.744a1.17 1.17 0 0 1 .583 1v13.29c0 .845-.456 1.617-1.195 2.039l-.422.239-4.772-2.75 1.189-.7a.41.41 0 0 0 .2-.356V3.916zm-1.111 3.7a2.42 2.42 0 0 0-1.75.25l-4.278 2.434a2.35 2.35 0 0 0-1.195 2.039v.383l4.445 2.567v-1.422c0-.15.077-.278.2-.356l1.544-.905a.4.4 0 0 1 .4 0l.634.372zm-7.223 6.39v3.2c0 .845.456 1.617 1.195 2.039l4.278 2.433a2.41 2.41 0 0 0 2.389 0l2.733-1.555z"/>
    <defs>
        <linearGradient id="DACXI__a" x1="12" x2="12" y1="2" y2="22" gradientUnits="userSpaceOnUse">
            <stop stop-color="#0584BE"/>
            <stop offset=".78" stop-color="#244E78"/>
        </linearGradient>
    </defs>
</svg>
